Humanity/actions/16/system-log-out.svg

<?xml version="1.0" encoding="UTF-8" standalone="no"?>
<!-- Created with Inkscape (http://www.inkscape.org/) -->

<svg
   xmlns:svg="http://www.w3.org/2000/svg"
   xmlns="http://www.w3.org/2000/svg"
   xmlns:xlink="http://www.w3.org/1999/xlink"
   version="1.0"
   width="16"
   height="16"
   id="svg11300">
  <defs
     id="defs3">
    <linearGradient
       id="linearGradient3785">
      <stop
         id="stop3787"
         style="stop-color:#b8b8b8;stop-opacity:1"
         offset="0" />
      <stop
         id="stop3789"
         style="stop-color:#878787;stop-opacity:1"
         offset="1" />
    </linearGradient>
    <linearGradient
       id="linearGradient6954">
      <stop
         id="stop6960"
         style="stop-color:#f5f5f5;stop-opacity:1"
         offset="0" />
      <stop
         id="stop6962"
         style="stop-color:#d2d2d2;stop-opacity:1"
         offset="1" />
    </linearGradient>
    <linearGradient
       id="linearGradient3341">
      <stop
         id="stop3343"
         style="stop-color:white;stop-opacity:1"
         offset="0" />
      <stop
         id="stop3345"
         style="stop-color:white;stop-opacity:0"
         offset="1" />
    </linearGradient>
    <radialGradient
       cx="24.999998"
       cy="28.659998"
       r="16"
       fx="24.999998"
       fy="28.659998"
       id="radialGradient2856"
       xlink:href="#linearGradient6954"
       gradientUnits="userSpaceOnUse"
       gradientTransform="matrix(0.56186795,0,0,0.15787922,-6.1682604,5.3385209)" />
    <linearGradient
       x1="30"
       y1="25.084745"
       x2="30"
       y2="45"
       id="linearGradient2858"
       xlink:href="#linearGradient3785"
       gradientUnits="userSpaceOnUse"
       gradientTransform="matrix(0.42808986,0,0,0.42296591,-2.823809,-3.2486024)" />
    <radialGradient
       cx="26.375898"
       cy="12.31301"
       r="8"
       fx="26.375898"
       fy="12.31301"
       id="radialGradient2860"
       xlink:href="#linearGradient6954"
       gradientUnits="userSpaceOnUse"
       gradientTransform="matrix(0.55250164,-0.0426402,0.04315608,0.50971914,-6.3026675,-1.9765067)" />
    <linearGradient
       x1="30"
       y1="5"
       x2="30"
       y2="44.678879"
       id="linearGradient2862"
       xlink:href="#linearGradient3785"
       gradientUnits="userSpaceOnUse"
       gradientTransform="matrix(0.33685737,0,0,0.32161283,-0.10572085,-0.29529973)" />
    <linearGradient
       x1="30"
       y1="0.91818392"
       x2="30"
       y2="25.792814"
       id="linearGradient2864"
       xlink:href="#linearGradient3341"
       gradientUnits="userSpaceOnUse"
       gradientTransform="matrix(0.33685737,0,0,0.32161283,-0.10572085,-0.29529973)" />
    <linearGradient
       x1="29.955881"
       y1="21.86607"
       x2="29.955881"
       y2="43.144382"
       id="linearGradient2866"
       xlink:href="#linearGradient3341"
       gradientUnits="userSpaceOnUse"
       gradientTransform="matrix(0.42808986,0,0,0.42296591,-2.823809,-3.2486024)" />
    <linearGradient
       x1="5.6373582"
       y1="25.809036"
       x2="52.970764"
       y2="28.565048"
       id="linearGradient3096"
       xlink:href="#linearGradient3222"
       gradientUnits="userSpaceOnUse"
       gradientTransform="matrix(0.28070269,0,0,0.26388582,0.48599861,41.434644)" />
    <linearGradient
       id="linearGradient3222">
      <stop
         id="stop3224"
         style="stop-color:#eda606;stop-opacity:1"
         offset="0" />
      <stop
         id="stop3226"
         style="stop-color:#efb220;stop-opacity:1"
         offset="0.36119571" />
      <stop
         id="stop3228"
         style="stop-color:#f1be3b;stop-opacity:0"
         offset="1" />
    </linearGradient>
    <linearGradient
       x1="40.808029"
       y1="44.845047"
       x2="40.692394"
       y2="32.182285"
       id="linearGradient3098"
       xlink:href="#linearGradient5432"
       gradientUnits="userSpaceOnUse"
       gradientTransform="matrix(0,-0.52411419,-0.55751482,0,32.735771,69.1272)" />
    <linearGradient
       id="linearGradient5432">
      <stop
         id="stop5434"
         style="stop-color:#a65612;stop-opacity:1"
         offset="0" />
      <stop
         id="stop5436"
         style="stop-color:#a65612;stop-opacity:0"
         offset="1" />
    </linearGradient>
  </defs>
  <g
     transform="translate(-2.9999393,-1.0016196)"
     id="g3743">
    <path
       d="M 8.84375,6.5 C 8.76311,7.180093 9.4339142,8.600105 9.0625,9.21875 7.6176751,9.7236407 5.0136423,10.644898 4.875,11.25 4.77263,12.189935 4.6190814,13.561421 4.5,14.5 c 2.5328977,1.368167 8.491801,1.30225 10.9375,0 -0.0863,-0.665917 -0.163702,-2.584084 -0.25,-3.25 C 14.53386,10.469482 12.812615,10.01275 11,9.21875 10.526353,8.602577 11.243461,7.22557 11.09375,6.53125 10.807324,6.482003 9.133812,6.507525 8.84375,6.5 z"
       id="path2880"
       style="fill:url(#radialGradient2856);fill-opacity:1;stroke:url(#linearGradient2858);stroke-width:1.00012147;stroke-linejoin:round;stroke-miterlimit:4;stroke-opacity:1;stroke-dasharray:none" />
    <path
       d="m 10,1.46875 c -1.3953075,0 -2.53125,1.0066477 -2.53125,2.25 0.010946,0.4601408 0.05895,1.0054807 0.34375,2.25 0.1684289,0.4824189 1.6739448,1.7766941 1.6875,1.9375 0.3266416,0.1608049 0.850642,0.1608049 1.1875,0 0,-0.1608059 1.331572,-1.4550811 1.5,-1.9375 0.320478,-1.293427 0.326559,-1.7675806 0.34375,-2.25 0,-1.2433523 -1.13594,-2.25 -2.53125,-2.25 z"
       id="path2870"
       style="fill:url(#radialGradient2860);fill-opacity:1;stroke:url(#linearGradient2862);stroke-width:0.94714093;stroke-miterlimit:4;stroke-opacity:1;stroke-dasharray:none" />
    <path
       d="M 10,2.46875 C 9.3876089,2.453926 8.7330161,2.7993069 8.53125,3.40625 c -0.1135765,0.4104884 -0.010161,0.836839 0.03125,1.25 0.05222,0.3381399 0.1132782,0.6660809 0.1875,1 0.1940928,0.171452 0.3611426,0.3974634 0.5625,0.5625 C 9.5758075,6.4747814 9.8032965,6.7399516 10.0625,7 10.330703,6.7826897 10.510924,6.4967292 10.75,6.25 10.902681,6.070177 11.060251,5.8623797 11.21875,5.6875 11.376386,4.9772187 11.558479,4.2653005 11.5,3.53125 11.375368,2.844477 10.652976,2.4515616 10,2.46875 z"
       id="path2866"
       style="fill:none;stroke:url(#linearGradient2864);stroke-width:0.94714093;stroke-miterlimit:4;stroke-opacity:1;stroke-dasharray:none" />
    <path
       d="m 10,9.0625 c 0.04083,0.6184717 -0.4844988,1.101042 -1.0625,1.1875 -1.0618145,0.377577 -2.1650919,0.706505 -3.125,1.3125 -0.224724,0.540724 -0.1042376,1.160705 -0.25,1.71875 -0.3309301,0.708961 0.5690774,0.776057 1.03125,0.90625 2.2561001,0.540715 4.652113,0.499061 6.90625,-0.03125 0.335847,-0.168593 1.138282,-0.08494 0.9375,-0.625 C 14.37527,12.943737 14.34558,12.339597 14.3125,11.75 13.392452,11.041669 12.225582,10.792671 11.1875,10.3125 10.364527,10.195739 10.334895,9.5928835 10,9.0625 z"
       id="path2876"
       style="fill:none;stroke:url(#linearGradient2866);stroke-width:1.00012147;stroke-linejoin:round;stroke-miterlimit:4;stroke-opacity:1;stroke-dasharray:none" />
  </g>
  <g
     transform="matrix(-1,0,0,1,18.530303,-36.439394)"
     id="g3092">
    <path
       d="m 8.0000035,42.939394 -4.878791,4.5 4.8787869,4.5 0,-3 6.0000006,0 0.06061,-3 -6.0000005,0 -0.060606,-3 z"
       id="path3212"
       style="fill:url(#linearGradient3096);fill-opacity:1;fill-rule:nonzero;stroke:url(#linearGradient3098);stroke-width:0.99999994;stroke-linecap:round;stroke-linejoin:round;stroke-miterlimit:4;stroke-opacity:1;stroke-dasharray:none;stroke-dashoffset:0;marker:none;visibility:visible;display:inline;overflow:visible" />
  </g>
</svg>

<?xml version="1.0" encoding="UTF-8" standalone="no"?>
<!-- Created with Inkscape (http://www.inkscape.org/) -->
<svg id="svg11300" xmlns="http://www.w3.org/2000/svg" height="16" width="16" version="1.0" xmlns:xlink="http://www.w3.org/1999/xlink">
 <defs id="defs3">
  <linearGradient id="linearGradient3785">
   <stop id="stop3787" style="stop-color:#b8b8b8" offset="0"/>
   <stop id="stop3789" style="stop-color:#878787" offset="1"/>
  </linearGradient>
  <linearGradient id="linearGradient6954">
   <stop id="stop6960" style="stop-color:#f5f5f5" offset="0"/>
   <stop id="stop6962" style="stop-color:#d2d2d2" offset="1"/>
  </linearGradient>
  <linearGradient id="linearGradient3341">
   <stop id="stop3343" style="stop-color:#fff" offset="0"/>
   <stop id="stop3345" style="stop-color:#fff;stop-opacity:0" offset="1"/>
  </linearGradient>
  <radialGradient id="radialGradient2856" xlink:href="#linearGradient6954" gradientUnits="userSpaceOnUse" cy="28.66" cx="25" gradientTransform="matrix(.56187 0 0 .15788 -6.1683 5.3385)" r="16"/>
  <linearGradient id="linearGradient2858" y2="45" xlink:href="#linearGradient3785" gradientUnits="userSpaceOnUse" x2="30" gradientTransform="matrix(.42809 0 0 .42297 -2.8238 -3.2486)" y1="25.085" x1="30"/>
  <radialGradient id="radialGradient2860" xlink:href="#linearGradient6954" gradientUnits="userSpaceOnUse" cy="12.313" cx="26.376" gradientTransform="matrix(.55250 -.042640 .043156 .50972 -6.3027 -1.9765)" r="8"/>
  <linearGradient id="linearGradient2862" y2="44.679" xlink:href="#linearGradient3785" gradientUnits="userSpaceOnUse" x2="30" gradientTransform="matrix(.33686 0 0 .32161 -.10572 -.29530)" y1="5" x1="30"/>
  <linearGradient id="linearGradient2864" y2="25.793" xlink:href="#linearGradient3341" gradientUnits="userSpaceOnUse" x2="30" gradientTransform="matrix(.33686 0 0 .32161 -.10572 -.29530)" y1=".91818" x1="30"/>
  <linearGradient id="linearGradient2866" y2="43.144" xlink:href="#linearGradient3341" gradientUnits="userSpaceOnUse" x2="29.956" gradientTransform="matrix(.42809 0 0 .42297 -2.8238 -3.2486)" y1="21.866" x1="29.956"/>
  <linearGradient id="linearGradient2874" y2="12.161" gradientUnits="userSpaceOnUse" x2="44.098" gradientTransform="matrix(-.31939 .00010967 -.00010756 -.31333 18.086 16.808)" y1="11.772" x1="6.53">
   <stop id="stop2444-3" style="stop-color:#ecb56c" offset="0"/>
   <stop id="stop3763" style="stop-color:#e86225" offset=".79970"/>
   <stop id="stop2446-9" style="stop-color:#f57900;stop-opacity:0" offset="1"/>
  </linearGradient>
  <linearGradient id="linearGradient2876" y2="18.998" gradientUnits="userSpaceOnUse" x2="9.9994" gradientTransform="matrix(.99981 -.00034329 .00034326 .99991 -6.0041 -7.9931)" y1="19.002" x1="22.001">
   <stop id="stop3714-8" style="stop-color:#cc7032" offset="0"/>
   <stop id="stop3765" style="stop-color:#bb2d13" offset=".68903"/>
   <stop id="stop3716-8" style="stop-color:#bf8407;stop-opacity:0" offset="1"/>
  </linearGradient>
 </defs>
 <g id="g3743" transform="translate(-2.9999 -1.0016)">
  <path id="path2880" style="stroke-linejoin:round;stroke:url(#linearGradient2858);stroke-width:1.0001;fill:url(#radialGradient2856)" d="m8.8438 6.5c-0.0807 0.6801 0.5901 2.1001 0.2187 2.7188-1.4448 0.5048-4.0489 1.4262-4.1875 2.0312-0.1024 0.94-0.2559 2.311-0.375 3.25 2.5329 1.3682 8.4918 1.3022 10.938 0-0.0863-0.66592-0.1637-2.5841-0.25-3.25-0.654-0.781-2.375-1.237-4.188-2.0312-0.474-0.6162 0.243-1.9932 0.094-2.6876-0.287-0.0492-1.9602-0.0237-2.2502-0.0312z"/>
  <path id="path2870" style="stroke:url(#linearGradient2862);stroke-width:.94714;fill:url(#radialGradient2860)" d="m10 1.4688c-1.3953 0-2.5312 1.0066-2.5312 2.25 0.010946 0.46014 0.05895 1.0055 0.34375 2.25 0.16843 0.48242 1.6739 1.7767 1.6875 1.9375 0.32664 0.1608 0.85064 0.1608 1.1875 0 0-0.16081 1.3316-1.4551 1.5-1.9375 0.32048-1.2934 0.32656-1.7676 0.34375-2.25 0-1.2434-1.1359-2.25-2.5312-2.25z"/>
  <path id="path2866" style="stroke:url(#linearGradient2864);stroke-width:.94714;fill:none" d="m10 2.4688c-0.6124-0.0149-1.267 0.3305-1.4688 0.9374-0.11358 0.41049-0.010161 0.83684 0.03125 1.25 0.05222 0.33814 0.11328 0.66608 0.1875 1 0.19409 0.17145 0.36114 0.39746 0.5625 0.5625 0.2634 0.2561 0.4909 0.5213 0.7496 0.7813 0.269-0.2173 0.449-0.5033 0.688-0.75 0.153-0.1798 0.31-0.3876 0.469-0.5625 0.157-0.7103 0.339-1.4222 0.281-2.1563-0.125-0.6867-0.847-1.0796-1.5-1.0624z"/>
  <path id="path2876" style="stroke-linejoin:round;stroke:url(#linearGradient2866);stroke-width:1.0001;fill:none" d="m10 9.0625c0.04083 0.61847-0.4845 1.101-1.0625 1.1875-1.0618 0.37758-2.1651 0.7065-3.125 1.3125-0.22472 0.54072-0.10424 1.1607-0.25 1.7188-0.33093 0.70896 0.56908 0.77606 1.0312 0.90625 2.2561 0.54072 4.6521 0.49906 6.9062-0.03125 0.33585-0.16859 1.1383-0.08494 0.9375-0.625-0.062-0.587-0.091-1.191-0.125-1.781-0.92-0.708-2.086-0.957-3.124-1.438-0.823-0.116-0.853-0.7191-1.188-1.2495z"/>
 </g>
 <path id="path3991" style="stroke-linejoin:round;stroke:url(#linearGradient2876);stroke-width:.99985;fill:url(#linearGradient2874)" d="m4.4999 12.502 5.999-0.0024v3.0006l5-4.5001-5-4.5v3h-5.999"/>
</svg>
